static/images/map.svg

<svg xmlns="http://www.w3.org/2000/svg" width="48" height="48"><circle fill="#66A3C6" cx="24" cy="24" r="24"/><path fill="#EACE80" d="M12 37l8-2V13l-8 2v22zm15-23v24l9-2V13l-9 1z"/><path fill="#D0A939" d="M20 13v22l7 3V14z"/><path d="M27 16l-7-1-7 2v18l7-2 7 3 8-1V15l-8 1zm7 18l-7 1-7-3-6 2V18l6-2 7 1 7-1v18z" opacity=".161"/><path fill="#947725" d="M30 21v1h1v-1h-1zm3 3v-1h-1v1h1zm-3 0h1v-1h-1v1zm1-2v1h1v-1h-1zm2-1h-1v1h1v-1zm-2 6h1v-2h-1v2zm-6.806 1.633l1.396 1.433.717-.698-1.396-1.432-.717.697zm-1.643-3.506l.421 1.956.978-.21-.42-1.956-.979.21zm-2.363-2.475l1.422 1.406.703-.711-1.422-1.406-.703.711zm-4.052.443l.521.854 1.707-1.042-.522-.854-1.706 1.042zm-1.577 3.783l.979.202.404-1.958-.979-.202-.404 1.958zm14.53 2.671l.828.56 1.12-1.657-.829-.56-1.119 1.657z"/></svg>

<?xml version="1.0" encoding="utf-8"?>
<!-- Generator: Adobe Illustrator 17.0.0, SVG Export Plug-In . SVG Version: 6.00 Build 0)  -->
<!DOCTYPE svg PUBLIC "-//W3C//DTD SVG 1.1//EN" "http://www.w3.org/Graphics/SVG/1.1/DTD/svg11.dtd">
<svg version="1.1" id="Layer_1" xmlns="http://www.w3.org/2000/svg" xmlns:xlink="http://www.w3.org/1999/xlink" x="0px" y="0px"
	 width="48px" height="48px" viewBox="0 0 48 48" enable-background="new 0 0 48 48" xml:space="preserve">
<g id="BG_-_circle_14_">
	<g>
		<circle fill="#66A3C6" cx="24" cy="24" r="24"/>
	</g>
</g>
<g id="Outer_Folds_1_">
	<g>
		<path fill="#EACE80" d="M12,37l8-2V13l-8,2V37z M27,14v24l9-2V13L27,14z"/>
	</g>
</g>
<g id="Center_Fold_1_">
	<g>
		<polygon fill="#D0A939" points="20,13 20,35 27,38 27,14 		"/>
	</g>
</g>
<g id="Frame" opacity="0.1608">
	<g>
		<path d="M27,16l-7-1l-7,2v18l7-2l7,3l8-1V15L27,16z M34,34l-7,1l-7-3l-6,2V18l6-2l7,1l7-1V34z"/>
	</g>
</g>
<g id="Track">
	<g>
		<path fill="#947725" d="M30,21v1h1v-1H30z M33,24v-1h-1v1H33z M30,24h1v-1h-1V24z M31,22v1h1v-1H31z M33,21h-1v1h1V21z M31,27h1
			v-2h-1V27z M24.194,28.633l1.396,1.433l0.717-0.698l-1.396-1.432L24.194,28.633z M22.551,25.127l0.421,1.956l0.978-0.21
			l-0.42-1.956L22.551,25.127z M20.188,22.652l1.422,1.406l0.703-0.711l-1.422-1.406L20.188,22.652z M16.136,23.095l0.521,0.854
			l1.707-1.042l-0.522-0.854L16.136,23.095z M14.559,26.878l0.979,0.202l0.404-1.958l-0.979-0.202L14.559,26.878z M29.089,29.549
			l0.828,0.56l1.12-1.657l-0.829-0.56L29.089,29.549z"/>
	</g>
</g>
</svg>
